X:931
T:My Home
C:Joe Buchanan's Scottish Tome - Page 546.1
I:546 1
Z:Carl Allison
R:Waltz
L:1/4
M:3/4
K:A
"A7"(e/d/) | "A"c>B A | "A7"A>c e | "D"a>g f | "E7"e3 | "A"c>B c | "F#m"A>B c | "Bm7"d>c d | "E7"B2 (e/d/) | 
"A"c>B A | "A7"A>c e | "D"a>g f | "E7"e2 d | "A"c>A c | "G"B =G B | "A"A3 | "A"A2 E | 
"A"A>B c | "F#m"c>B c | "A"e>d c | "A"c2 e | "Bm"d>c d | "E7"B>c d | "A"e>c A | "A7"A>c e | 
"D"f>d f | "D"a>g f | "A"e>d c | "A"a2 d | "A"c>A c | "G"B>=G B | "A"A3- | "A"A2 :|

